!!!!SEGMENT: pl-cz--iii-107--001-009_dankowski-adalbert--vesperae-es-quia-fecit.krn
!!!cenid: 18xx:769
!!!COM: Dankowski, Adalbert
!!!COM-rismID: pe30000793
!!!CDT: ~1760-~1836
!!!CNT: Polish
!!!OPR: Vesperae Es
!!!OTL: Quia fecit
!!!OMV: 009
!!!PDT: 1825
!!!AGN: Sacred; Vespers
!!!YEC: Copyright 2022 Narodowy Instytut Fryderyka Chopina (https://polishscores.org)
!!!YEM: License CC-BY-4.0 (https://creativecommons.org/licenses/by/4.0)
!!!SMS-siglum: PL-CZ
!!!SMS-shelfmark: III-107
!!!SMS-shelfwork: 001-009 M
!!!SMS-variant:
!!!SMS-altvar:
!!!NIFC-rismSourceID: 300000115
!!!NIFC-rismChildID: 300000115
!!!NIFC-islandoraID: pl-cz:34263
!!!URL-pdf-islandora: https://repozytorium.nifc.pl/islandora/object/pl-cz%3A34263/datastream/PDF/view
!!!URL-scan: https://polish.musicsources.pl/pl/lokalizacje/galeria/rekopisy/6825/1 @EN{Scan on Polish Music Sources Website} @PL{Skany w portalu Dziedzictwo Muzyki Polskiej w otwartym dostępie}
!!!IIIF:
!!!ONB-nifc: UWAGA: części Vesperae: Dixit Dominus, Tecum principium, Iudicabit, De torrente,
!!!AIN: 1 alto 1 bass 2 clara 2 cor 1 organ 1 soprn 1 tenor 2 violn
!!!key: E-
**kern	**dynam	**fba	**kern	**dynam	**kern	**dynam	**kern	**kern	**kern	**kern	**text	**kern	**kern	**kern	**kern
*group5	*	*	*group4	*	*group4	*	*group3	*group3	*group3	*group3	*	*group2	*group2	*group1	*group1
*part11	*	*	*part10	*	*part9	*	*part8	*part7	*part6	*part5	*	*part4	*part3	*part2	*part1
*staff11	*	*	*staff10	*	*staff9	*	*staff8	*staff7	*staff6	*staff5	*	*staff4	*staff3	*staff2	*staff1
*I"Organo.	*	*	*I"Violino Secondo.	*	*I"Violino .. Primo	*	*I"Baſso	*I"Tenore	*I"Alto.	*I"Soprano.	*	*I"Corno Secondo. in Dis Obligato.	*I"Corno Prymo Obligato in Dis	*I"Clarinetto Secundo in Dis	*I"Clarinetto. Primo. in Dis.
*I'[Org]	*	*	*I'[Vl 2]	*	*I'[Vl 1]	*	*I'[B]	*I'[T]	*I'[A]	*I'[S]	*	*I'[Cor 2 in Dis]	*I'[Cor 1 in Dis]	*I'[Cl 2 in Dis]	*I'[Cl 1 in Dis.]
*Iorgan	*	*	*Ivioln	*	*Ivioln	*	*Ibass	*Itenor	*Ialto	*Isoprn	*	*Icor	*Icor	*Iclara	*Iclara
*ICklav	*	*	*ICstr	*	*ICstr	*	*ICvox	*ICvox	*ICvox	*ICvox	*	*ICbras	*ICbras	*ICww	*ICww
*IGcont	*	*	*IGacmp	*	*IGacmp	*	*IGcoro	*IGcoro	*IGcoro	*IGcoro	*	*IGacmp	*IGacmp	*IGacmp	*IGacmp
*clefF4	*	*	*clefG2	*	*clefG2	*	*clefF4	*clefC4	*clefC3	*clefC1	*	*clefG2	*clefG2	*clefG2	*clefG2
*	*	*	*	*	*	*	*	*	*	*	*	*ITrd5c9	*ITrd5c9	*ITrd1c2	*ITrd1c2
*k[b-e-a-d-]	*	*	*k[b-e-a-d-]	*	*k[b-e-a-d-]	*	*k[b-e-a-d-]	*k[b-e-a-d-]	*k[b-e-a-d-]	*k[b-e-a-d-]	*	*k[b-e-a-d-]	*k[b-e-a-d-]	*k[b-e-a-d-]	*k[b-e-a-d-]
*E-:	*	*	*E-:	*	*E-:	*	*E-:	*E-:	*E-:	*E-:	*	*E-:	*E-:	*E-:	*E-:
*M3/4	*	*	*M3/4	*	*M3/4	*	*M3/4	*M3/4	*M3/4	*M3/4	*	*M3/4	*M3/4	*M3/4	*M3/4
=1	=1	=1	=1	=1	=1	=1	=1	=1	=1	=1	=1	=1	=1	=1	=1
*2\right	*	*	*	*	*	*	*	*	*	*	*	*	*	*	*
*tremolo	*	*	*	*	*	*	*	*	*	*	*	*	*	*	*
!LO:TX:a:t=Quia fecit	!	!	!	!	!	!	!	!	!	!LO:TX:a:t=Andante	!	!	!	!	!
!LO:TX:a:t=Andante.	!	!	!	!	!LO:TX:a:t=Quia Fecit.	!	!	!	!	!LO:TX:a:t=8.	!	!	!	!	!
!LO:TX:b:t=Solo	!	!	!LO:TX:a:t=Quia Fecit. Andate.	!	!LO:TX:a:t=Allo	!	!LO:TX:a:t=Tacet Quia Fecit	!LO:TX:a:t=Quia fecit Tacet	!LO:TX:a:t=Quia fecit Tacet,	!	!	!LO:TX:a:t=Quia fecit Tacet.	!LO:TX:a:t=Qui Fecit Tacet	!LO:TX:a:t=Quia Fecit Tacet	!LO:TX:a:t=Quia. fecit Tacet.
8A-\L	.	.	8c/L	.	(>16ee-\LL	.	2.ryy	2.ryy	2.ryy	2.r	.	2.ryy	2.ryy	2.ryy	2.ryy
.	.	.	.	.	16dd-\	.	.	.	.	.	.	.	.	.	.
8A-\	.	.	8c/	.	16cc\	.	.	.	.	.	.	.	.	.	.
.	.	.	.	.	16dd-\JJ)	.	.	.	.	.	.	.	.	.	.
8A-\	.	.	8c/	.	(>8ee-\L	.	.	.	.	.	.	.	.	.	.
8A-\	.	.	8c/	.	8aa-\)	.	.	.	.	.	.	.	.	.	.
8A-\	.	.	8c/	.	(>8cc\	.	.	.	.	.	.	.	.	.	.
8A-\J	.	.	8c/J	.	8ee-\J)	.	.	.	.	.	.	.	.	.	.
!	!	!	!LO:LB:g=original	!	!	!	!	!	!	!	!	!	!	!	!
=2	=2	=2	=2	=2	=2	=2	=2	=2	=2	=2-	=2	=2	=2	=2	=2
*	*	*	*tremolo	*	*	*	*	*	*	*	*	*	*	*	*
8E-\L	.	.	8B-/L	.	8ee-\L	.	2.ryy	2.ryy	2.ryy	2.r	.	2.ryy	2.ryy	2.ryy	2.ryy
8E-\	.	.	8B-/	.	8dd-\J	.	.	.	.	.	.	.	.	.	.
8E-\	.	.	8B-/	.	4dd-\	.	.	.	.	.	.	.	.	.	.
8E-\	.	.	8B-/	.	.	.	.	.	.	.	.	.	.	.	.
8E-\	.	.	8B-/	.	8r	.	.	.	.	.	.	.	.	.	.
8E-\J	.	.	8B-/J	.	8dd-\	.	.	.	.	.	.	.	.	.	.
=3	=3	=3	=3	=3	=3	=3	=3	=3	=3	=3-	=3	=3	=3	=3	=3
8G\L	.	6 5	8B-/L	.	(>16ddn\LL	.	2.ryy	2.ryy	2.ryy	2.r	.	2.ryy	2.ryy	2.ryy	2.ryy
.	.	.	.	.	16ee-\	.	.	.	.	.	.	.	.	.	.
8G\	.	.	8B-/	.	16ff\	.	.	.	.	.	.	.	.	.	.
.	.	.	.	.	16ee-\JJ)	.	.	.	.	.	.	.	.	.	.
8G\	.	.	8B-/	.	(>16gg\LL	.	.	.	.	.	.	.	.	.	.
.	.	.	.	.	16ee-\	.	.	.	.	.	.	.	.	.	.
8G\	.	.	8B-/	.	16bb-\	.	.	.	.	.	.	.	.	.	.
.	.	.	.	.	16aa-\JJ)	.	.	.	.	.	.	.	.	.	.
8G\	.	.	8B-/	.	16gg\LL	.	.	.	.	.	.	.	.	.	.
.	.	.	.	.	16ff\	.	.	.	.	.	.	.	.	.	.
8G\J	.	.	8B-/J	.	16ee-\	.	.	.	.	.	.	.	.	.	.
.	.	.	.	.	16dd-X\JJ	.	.	.	.	.	.	.	.	.	.
=4	=4	=4	=4	=4	=4	=4	=4	=4	=4	=4-	=4	=4	=4	=4	=4
8A-\L	.	.	8e-/L	.	8dd-\L	.	2.ryy	2.ryy	2.ryy	2.r	.	2.ryy	2.ryy	2.ryy	2.ryy
8A-\	.	.	8e-/	.	8cc\J	.	.	.	.	.	.	.	.	.	.
8A-\	.	.	8e-/	.	4cc\	.	.	.	.	.	.	.	.	.	.
8A-\	.	.	8e-/	.	.	.	.	.	.	.	.	.	.	.	.
8A-\	.	.	8e-/	.	8r	.	.	.	.	.	.	.	.	.	.
8A-\J	.	.	8e-/J	.	8e-/	.	.	.	.	.	.	.	.	.	.
*Xtremolo	*	*	*Xtremolo	*	*	*	*	*	*	*	*	*	*	*	*
!	!	!	!	!	!LO:LB:g=original	!	!	!	!	!	!	!	!	!	!
=5	=5	=5	=5	=5	=5	=5	=5	=5	=5	=5-	=5	=5	=5	=5	=5
4G\	.	6	8.B-/L	.	8.b-\L	.	2.ryy	2.ryy	2.ryy	2.r	.	2.ryy	2.ryy	2.ryy	2.ryy
.	.	.	(<32c/LL	.	32cc\LL	.	.	.	.	.	.	.	.	.	.
.	.	.	32d-/JJJ)	.	32dd-\JJJ	.	.	.	.	.	.	.	.	.	.
.	.	.	.	.	8qqdd-/	.	.	.	.	.	.	.	.	.	.
4A-\	.	.	8c/L	.	8cc\L	.	.	.	.	.	.	.	.	.	.
.	.	.	(<16a-/L	.	(>16aa-\L	.	.	.	.	.	.	.	.	.	.
.	.	.	16g/JJ)	.	16gg\JJ)	.	.	.	.	.	.	.	.	.	.
4r	.	.	(<16f/LL	.	(>16ff\LL	.	.	.	.	.	.	.	.	.	.
.	.	.	16e-/	.	16ee-\	.	.	.	.	.	.	.	.	.	.
.	.	.	16d-/	.	16dd-\	.	.	.	.	.	.	.	.	.	.
.	.	.	16c/JJ)	.	16cc\JJ)	.	.	.	.	.	.	.	.	.	.
=6	=6	=6	=6	=6	=6	=6	=6	=6	=6	=6-	=6	=6	=6	=6	=6
4G\	.	.	8.B-/L	.	8.b-\L	.	2.ryy	2.ryy	2.ryy	2.r	.	2.ryy	2.ryy	2.ryy	2.ryy
.	.	.	32c/LL	.	(>32cc\LL	.	.	.	.	.	.	.	.	.	.
.	.	.	32d-/JJJ	.	32dd-\JJJ)	.	.	.	.	.	.	.	.	.	.
.	.	.	.	.	8qqdd-/	.	.	.	.	.	.	.	.	.	.
4A-\	.	.	8c/L	.	8cc\L	.	.	.	.	.	.	.	.	.	.
.	.	.	16a-/L	.	16aa-\L	.	.	.	.	.	.	.	.	.	.
.	.	.	16g/JJ	.	16gg\JJ	.	.	.	.	.	.	.	.	.	.
4r	.	.	16f/LL	.	(>16ff\LL	.	.	.	.	.	.	.	.	.	.
.	.	.	16e-/	.	16ee-\	.	.	.	.	.	.	.	.	.	.
.	.	.	16d-/	.	16dd-\	.	.	.	.	.	.	.	.	.	.
.	.	.	16c/JJ	.	16cc\JJ)	.	.	.	.	.	.	.	.	.	.
!LO:LB:g=original	!	!	!	!	!	!	!	!	!	!	!	!	!	!	!
=7	=7	=7	=7	=7	=7	=7	=7	=7	=7	=7-	=7	=7	=7	=7	=7
*tremolo	*	*	*	*	*	*	*	*	*	*	*	*	*	*	*
8D-\L	.	6	16c/LL	.	(>16cc\LL	.	2.ryy	2.ryy	2.ryy	2.r	.	2.ryy	2.ryy	2.ryy	2.ryy
.	.	.	16B-/	.	16b-\	.	.	.	.	.	.	.	.	.	.
8D-\	.	.	16An/	.	16an\	.	.	.	.	.	.	.	.	.	.
.	.	.	16B-/JJ	.	16b-\JJ)	.	.	.	.	.	.	.	.	.	.
8D-\	.	.	16A/LL	.	(>16a\LL	.	.	.	.	.	.	.	.	.	.
.	.	.	16B-/	.	16b-\	.	.	.	.	.	.	.	.	.	.
8D-\J	.	.	16d-/	.	16dd-\	.	.	.	.	.	.	.	.	.	.
.	.	.	16B-/JJ	.	16b-\JJ)	.	.	.	.	.	.	.	.	.	.
*Xtremolo	*	*	*	*	*	*	*	*	*	*	*	*	*	*	*
8Dn\L	.	5	16d-/LL	.	(>16dd-\LL	.	.	.	.	.	.	.	.	.	.
.	.	.	16c/	.	16cc\	.	.	.	.	.	.	.	.	.	.
8D\J	.	.	16B-/	.	16b-\	.	.	.	.	.	.	.	.	.	.
.	.	.	16A-X/JJ	.	16a\JJ)	.	.	.	.	.	.	.	.	.	.
=8	=8	=8	=8	=8	=8	=8	=8	=8	=8	=8-	=8	=8	=8	=8	=8
4E-\	.	4	8c/L	.	8a-/L	.	2.ryy	2.ryy	2.ryy	2.r	.	2.ryy	2.ryy	2.ryy	2.ryy
.	.	.	16B-/L	.	16g/L	.	.	.	.	.	.	.	.	.	.
.	.	.	16c/JJ	.	16a-/JJ	.	.	.	.	.	.	.	.	.	.
4EE-/	.	3	4B-/	.	4g/	.	.	.	.	.	.	.	.	.	.
4r	.	.	4r	.	4r	.	.	.	.	.	.	.	.	.	.
!	!	!	!LO:LB:g=original	!	!LO:LB:g=original	!	!	!	!	!	!	!	!	!	!
=9	=9	=9	=9	=9	=9	=9	=9	=9	=9	=9	=9	=9	=9	=9	=9
!	!	!	!	!LO:DY:b	!	!LO:DY:b	!	!	!	!	!	!	!	!	!
8r	.	.	8r	p	8r	p	2.ryy	2.ryy	2.ryy	4.ee-\	Qui-	2.ryy	2.ryy	2.ryy	2.ryy
!	!LO:DY:b:t=pp.	!	!	!	!	!	!	!	!	!	!	!	!	!	!
8A-\	pp	.	8c/	.	8e-/L	.	.	.	.	.	.	.	.	.	.
*tremolo	*	*	*tremolo	*	*	*	*	*	*	*	*	*	*	*	*
8A-\L	.	.	8c/L	.	8e-/	.	.	.	.	.	.	.	.	.	.
8A-\	.	.	8c/	.	8e-/	.	.	.	.	8aa-\	.	.	.	.	.
8A-\	.	.	8c/	.	8e-/	.	.	.	.	8cc\L	-a	.	.	.	.
8A-\J	.	.	8c/J	.	8e-/J	.	.	.	.	8ee-\J	.	.	.	.	.
*Xtremolo	*	*	*Xtremolo	*	*	*	*	*	*	*	*	*	*	*	*
=10	=10	=10	=10	=10	=10	=10	=10	=10	=10	=10	=10	=10	=10	=10	=10
8r	.	.	8r	.	8r	.	2.ryy	2.ryy	2.ryy	(>8ee-\L	fe-	2.ryy	2.ryy	2.ryy	2.ryy
8E-\	.	.	8B-/	.	8g/	.	.	.	.	8dd-\J)	.	.	.	.	.
*tremolo	*	*	*tremolo	*	*tremolo	*	*	*	*	*	*	*	*	*	*
8E-\L	.	.	8B-/L	.	8g/L	.	.	.	.	4dd-\	-cit	.	.	.	.
8E-\	.	.	8B-/	.	8g/	.	.	.	.	.	.	.	.	.	.
8E-\	.	.	8B-/	.	8g/	.	.	.	.	4r	.	.	.	.	.
8E-\J	.	.	8B-/J	.	8g/J	.	.	.	.	.	.	.	.	.	.
*Xtremolo	*	*	*Xtremolo	*	*Xtremolo	*	*	*	*	*	*	*	*	*	*
=11	=11	=11	=11	=11	=11	=11	=11	=11	=11	=11	=11	=11	=11	=11	=11
8r	.	.	8r	.	8r	.	2.ryy	2.ryy	2.ryy	8.b-\L	mi-	2.ryy	2.ryy	2.ryy	2.ryy
8G\	.	6 5	8B-/	.	8e-/	.	.	.	.	.	.	.	.	.	.
.	.	.	.	.	.	.	.	.	.	16ee-\Jk	.	.	.	.	.
*tremolo	*	*	*tremolo	*	*tremolo	*	*	*	*	*	*	*	*	*	*
8G\L	.	.	8B-/L	.	8e-/L	.	.	.	.	16gg\LL	.	.	.	.	.
.	.	.	.	.	.	.	.	.	.	16ee-\	.	.	.	.	.
8G\	.	.	8B-/	.	8e-/	.	.	.	.	16bb-\	.	.	.	.	.
.	.	.	.	.	.	.	.	.	.	16aa-\JJ	.	.	.	.	.
8G\	.	.	8B-/	.	8e-/	.	.	.	.	16gg\LL	.	.	.	.	.
.	.	.	.	.	.	.	.	.	.	16ff\JJ	.	.	.	.	.
8G\J	.	.	8B-/J	.	8e-/J	.	.	.	.	16ee-\LL	-hi	.	.	.	.
.	.	.	.	.	.	.	.	.	.	16dd-\JJ	.	.	.	.	.
*Xtremolo	*	*	*Xtremolo	*	*Xtremolo	*	*	*	*	*	*	*	*	*	*
!	!	!	!	!	!	!	!	!	!	!LO:LB:g=original	!	!	!	!	!
=12	=12	=12	=12	=12	=12	=12	=12	=12	=12	=12	=12	=12	=12	=12	=12
8r	.	.	8r	.	8r	.	2.ryy	2.ryy	2.ryy	16ee-\LL	ma-	2.ryy	2.ryy	2.ryy	2.ryy
.	.	.	.	.	.	.	.	.	.	16dd-\	.	.	.	.	.
8A-\	.	4 3	8c/	.	8e-/	.	.	.	.	16cc\	.	.	.	.	.
.	.	.	.	.	.	.	.	.	.	16dd-\JJ	.	.	.	.	.
*tremolo	*	*	*tremolo	*	*tremolo	*	*	*	*	*	*	*	*	*	*
8A-\L	.	.	8c/L	.	8e-/L	.	.	.	.	4cc\	-gnam	.	.	.	.
8A-\	.	.	8c/	.	8e-/	.	.	.	.	.	.	.	.	.	.
8A-\	.	.	8c/	.	8e-/	.	.	.	.	8r	.	.	.	.	.
8A-\J	.	.	8c/J	.	8e-/J	.	.	.	.	8cc\	qui	.	.	.	.
*Xtremolo	*	*	*Xtremolo	*	*Xtremolo	*	*	*	*	*	*	*	*	*	*
=13	=13	=13	=13	=13	=13	=13	=13	=13	=13	=13	=13	=13	=13	=13	=13
8r	.	.	8r	.	8r	.	2.ryy	2.ryy	2.ryy	8.a-\L	po-	2.ryy	2.ryy	2.ryy	2.ryy
8A-\	.	.	8c/	.	8e-/	.	.	.	.	.	.	.	.	.	.
.	.	.	.	.	.	.	.	.	.	16cc\Jk	.	.	.	.	.
*tremolo	*	*	*tremolo	*	*tremolo	*	*	*	*	*	*	*	*	*	*
8A-\L	.	.	8c/L	.	8e-/L	.	.	.	.	4ee-\	-tens	.	.	.	.
8A-\	.	.	8c/	.	8e-/	.	.	.	.	.	.	.	.	.	.
8A-\	.	.	8c/	.	8e-/	.	.	.	.	8r	.	.	.	.	.
!	!	!	!	!	!	!	!	!	!	!	!LO:MO:P=qui	!	!	!	!
8A-\J	.	.	8c/J	.	8e-/J	.	.	.	.	8cc\	mi	.	.	.	.
*Xtremolo	*	*	*Xtremolo	*	*Xtremolo	*	*	*	*	*	*	*	*	*	*
=14	=14	=14	=14	=14	=14	=14	=14	=14	=14	=14	=14	=14	=14	=14	=14
8r	.	.	8r	.	8r	.	2.ryy	2.ryy	2.ryy	16ee-\LL	po-	2.ryy	2.ryy	2.ryy	2.ryy
.	.	.	.	.	.	.	.	.	.	16dd-\JJ	.	.	.	.	.
8E-\	.	.	8B-/	.	8g/	.	.	.	.	16cc\LL	.	.	.	.	.
.	.	.	.	.	.	.	.	.	.	16dd-\JJ	.	.	.	.	.
*tremolo	*	*	*tremolo	*	*tremolo	*	*	*	*	*	*	*	*	*	*
8E-\L	.	.	8B-/L	.	8g/L	.	.	.	.	4b-\	-tens	.	.	.	.
8E-\	.	.	8B-/	.	8g/	.	.	.	.	.	.	.	.	.	.
8E-\	.	.	8B-/	.	8g/	.	.	.	.	8r	.	.	.	.	.
8E-\J	.	.	8B-/J	.	8g/J	.	.	.	.	8dd-\	et	.	.	.	.
*Xtremolo	*	*	*Xtremolo	*	*Xtremolo	*	*	*	*	*	*	*	*	*	*
=15	=15	=15	=15	=15	=15	=15	=15	=15	=15	=15	=15	=15	=15	=15	=15
8r	.	.	8r	.	8r	.	2.ryy	2.ryy	2.ryy	8cc\	San-	2.ryy	2.ryy	2.ryy	2.ryy
8A-\L	.	.	8e-/	.	8cc/L	.	.	.	.	8ee-\	-ctum	.	.	.	.
*	*	*	*tremolo	*	*	*	*	*	*	*	*	*	*	*	*
8D-\	.	6	8f/L	.	8cc/	.	.	.	.	8ee-\L	no-	.	.	.	.
8D-\	.	.	8f/	.	8b-/	.	.	.	.	8dd-\J	.	.	.	.	.
8D-\	.	.	8f/	.	8b-/	.	.	.	.	8dd-\L	-me	.	.	.	.
8Dn\J	.	5	8f/J	.	8a-/J	.	.	.	.	8cc\J	.	.	.	.	.
*	*	*	*Xtremolo	*	*	*	*	*	*	*	*	*	*	*	*
!LO:LB:g=original	!	!	!	!	!LO:LB:g=original	!	!	!	!	!	!	!	!	!	!
=16	=16	=16	=16	=16	=16	=16	=16	=16	=16	=16	=16	=16	=16	=16	=16
8r	.	.	8r	.	8r	.	2.ryy	2.ryy	2.ryy	8cc\L	e-	2.ryy	2.ryy	2.ryy	2.ryy
8E-\	.	4	8c/	.	8g/	.	.	.	.	16b-\L	.	.	.	.	.
.	.	.	.	.	.	.	.	.	.	16cc\JJ	.	.	.	.	.
*tremolo	*	*	*tremolo	*	*tremolo	*	*	*	*	*	*	*	*	*	*
8E-\L	.	3	8B-/L	.	8g/L	.	.	.	.	4b-\	-jus	.	.	.	.
8E-\	.	.	8B-/	.	8g/	.	.	.	.	.	.	.	.	.	.
8E-\	.	.	8B-/	.	8g/	.	.	.	.	4r	.	.	.	.	.
8E-\J	.	.	8B-/J	.	8g/J	.	.	.	.	.	.	.	.	.	.
*Xtremolo	*	*	*Xtremolo	*	*Xtremolo	*	*	*	*	*	*	*	*	*	*
!	!	!	!	!	!	!	!	!	!	!LO:LB:g=original	!	!	!	!	!
=17	=17	=17	=17	=17	=17	=17	=17	=17	=17	=17	=17	=17	=17	=17	=17
8r	.	.	8r	.	8r	.	2.ryy	2.ryy	2.ryy	4.b-\	et	2.ryy	2.ryy	2.ryy	2.ryy
8E-\	.	3	8B-/L	.	8g/L	.	.	.	.	.	.	.	.	.	.
*tremolo	*	*	*	*	*	*	*	*	*	*	*	*	*	*	*
8E-\L	.	4	8B-/	.	8g/	.	.	.	.	.	.	.	.	.	.
8E-\	.	.	8B-/	.	8g/	.	.	.	.	16cc\LL	mi-	.	.	.	.
.	.	.	.	.	.	.	.	.	.	16dd-\JJ	.	.	.	.	.
.	.	.	.	.	.	.	.	.	.	8qff/	.	.	.	.	.
8E-\	.	.	8c/	.	8a-/	.	.	.	.	8ee-\	-se-	.	.	.	.
8E-\J	.	.	8c/J	.	8a-/J	.	.	.	.	16dd-\LL	-ri-	.	.	.	.
.	.	.	.	.	.	.	.	.	.	16cc\JJ	.	.	.	.	.
*Xtremolo	*	*	*	*	*	*	*	*	*	*	*	*	*	*	*
!	!	!	!LO:LB:g=original	!	!	!	!	!	!	!	!	!	!	!	!
=18	=18	=18	=18	=18	=18	=18	=18	=18	=18	=18	=18	=18	=18	=18	=18
8r	.	.	8r	.	8r	.	2.ryy	2.ryy	2.ryy	16b-\LL	-cor-	2.ryy	2.ryy	2.ryy	2.ryy
.	.	.	.	.	.	.	.	.	.	16a-\JJ	.	.	.	.	.
8E-\	.	3	8B-/	.	8g/	.	.	.	.	16g\LL	-di-	.	.	.	.
.	.	.	.	.	.	.	.	.	.	16a-\JJ	.	.	.	.	.
*tremolo	*	*	*tremolo	*	*tremolo	*	*	*	*	*	*	*	*	*	*
8E-\L	.	.	8B-/L	.	8g/L	.	.	.	.	4b-\	-a	.	.	.	.
8E-\	.	.	8B-/	.	8g/	.	.	.	.	.	.	.	.	.	.
8E-\	.	.	8B-/	.	8g/	.	.	.	.	4r	.	.	.	.	.
8E-\J	.	.	8B-/J	.	8g/J	.	.	.	.	.	.	.	.	.	.
*Xtremolo	*	*	*Xtremolo	*	*Xtremolo	*	*	*	*	*	*	*	*	*	*
=19	=19	=19	=19	=19	=19	=19	=19	=19	=19	=19	=19	=19	=19	=19	=19
8r	.	.	8r	.	8r	.	2.ryy	2.ryy	2.ryy	4.b-\	e-	2.ryy	2.ryy	2.ryy	2.ryy
8E-\	.	3	8B-/L	.	8g/L	.	.	.	.	.	.	.	.	.	.
*tremolo	*	*	*	*	*	*	*	*	*	*	*	*	*	*	*
8E-\L	.	4	8B-/	.	8g/	.	.	.	.	.	.	.	.	.	.
8E-\	.	.	8B-/	.	8g/	.	.	.	.	16cc\LL	-jus	.	.	.	.
.	.	.	.	.	.	.	.	.	.	16dd-\JJ	.	.	.	.	.
.	.	.	.	.	.	.	.	.	.	8qff/	.	.	.	.	.
8E-\	.	.	8c/	.	8a-/	.	.	.	.	8ee-\	a	.	.	.	.
8E-\J	.	.	8c/J	.	8a-/J	.	.	.	.	16dd-\LL	pro-	.	.	.	.
.	.	.	.	.	.	.	.	.	.	16cc\JJ	.	.	.	.	.
*Xtremolo	*	*	*	*	*	*	*	*	*	*	*	*	*	*	*
=20	=20	=20	=20	=20	=20	=20	=20	=20	=20	=20	=20	=20	=20	=20	=20
8r	.	.	8r	.	8r	.	2.ryy	2.ryy	2.ryy	16b-\LL	-ge-	2.ryy	2.ryy	2.ryy	2.ryy
.	.	.	.	.	.	.	.	.	.	16a-\JJ	.	.	.	.	.
8E-\	.	3	8B-/	.	8g/	.	.	.	.	16g\LL	-ni-	.	.	.	.
.	.	.	.	.	.	.	.	.	.	16a-\JJ	.	.	.	.	.
*tremolo	*	*	*tremolo	*	*tremolo	*	*	*	*	*	*	*	*	*	*
8E-\L	.	.	8B-/L	.	8g/L	.	.	.	.	4b-\	-e	.	.	.	.
8E-\	.	.	8B-/	.	8g/	.	.	.	.	.	.	.	.	.	.
8E-\	.	.	8B-/	.	8g/	.	.	.	.	8r	.	.	.	.	.
8E-\J	.	.	8B-/J	.	8g/J	.	.	.	.	8gg\	i	.	.	.	.
*Xtremolo	*	*	*Xtremolo	*	*Xtremolo	*	*	*	*	*	*	*	*	*	*
=21	=21	=21	=21	=21	=21	=21	=21	=21	=21	=21	=21	=21	=21	=21	=21
!	!	!	!LO:TX:a:t=P:problem=takt 21 zapisany jako repetycja	!	!	!	!	!	!	!	!	!	!	!	!
8r	.	.	8ryy	.	8r	.	2.ryy	2.ryy	2.ryy	4.ff\	.	2.ryy	2.ryy	2.ryy	2.ryy
8Dn\	.	6 5	8B-/yy	.	8f/	.	.	.	.	.	.	.	.	.	.
*tremolo	*	*	*tremolo	*	*tremolo	*	*	*	*	*	*	*	*	*	*
8E-\L	.	.	8B-/Lyy	.	8f/L	.	.	.	.	.	.	.	.	.	.
8E-\	.	.	8B-/yy	.	8f/	.	.	.	.	8aa-\	.	.	.	.	.
8E-\	.	.	8B-/yy	.	8f/	.	.	.	.	8ddn\L	pro-	.	.	.	.
8E-\J	.	.	8B-/Jyy	.	8f/J	.	.	.	.	8ff\J	.	.	.	.	.
*Xtremolo	*	*	*Xtremolo	*	*Xtremolo	*	*	*	*	*	*	*	*	*	*
!	!	!	!	!	!	!	!	!	!	!LO:LB:g=original	!	!	!	!	!
=22	=22	=22	=22	=22	=22	=22	=22	=22	=22	=22	=22	=22	=22	=22	=22
8r	.	.	8r	.	8r	.	2.ryy	2.ryy	2.ryy	8ee-\	-ge-	2.ryy	2.ryy	2.ryy	2.ryy
8E-\	.	3	8B-/	.	8g/	.	.	.	.	8b-\	-ni-	.	.	.	.
*tremolo	*	*	*tremolo	*	*tremolo	*	*	*	*	*	*	*	*	*	*
8E-\L	.	.	8B-/L	.	8g/L	.	.	.	.	4b-\	-es	.	.	.	.
8E-\	.	.	8B-/	.	8g/	.	.	.	.	.	.	.	.	.	.
8E-\	.	.	8B-/	.	8g/	.	.	.	.	8r	.	.	.	.	.
8E-\J	.	.	8B-/J	.	8g/J	.	.	.	.	8b-\	ti-	.	.	.	.
*Xtremolo	*	*	*Xtremolo	*	*Xtremolo	*	*	*	*	*	*	*	*	*	*
!	!	!	!	!	!LO:LB:g=original	!	!	!	!	!	!	!	!	!	!
=23	=23	=23	=23	=23	=23	=23	=23	=23	=23	=23	=23	=23	=23	=23	=23
8r	.	.	8r	.	8r	.	2.ryy	2.ryy	2.ryy	16cc\LL	-men-	2.ryy	2.ryy	2.ryy	2.ryy
.	.	.	.	.	.	.	.	.	.	16b-\JJ	.	.	.	.	.
8A-\	.	3	8c/	.	8e-/	.	.	.	.	16cc\LL	-ti-	.	.	.	.
.	.	.	.	.	.	.	.	.	.	16dd-X\JJ	.	.	.	.	.
*tremolo	*	*	*tremolo	*	*tremolo	*	*	*	*	*	*	*	*	*	*
8A-\L	.	4	8B-/L	.	8e-/L	.	.	.	.	4cc\	-bus	.	.	.	.
8A-\	.	.	8B-/	.	8e-/	.	.	.	.	.	.	.	.	.	.
8A-\	.	.	8B-/	.	8e-/	.	.	.	.	8r	.	.	.	.	.
8A-\J	.	.	8B-/J	.	8e-/J	.	.	.	.	8ddn\	ti-	.	.	.	.
*Xtremolo	*	*	*Xtremolo	*	*Xtremolo	*	*	*	*	*	*	*	*	*	*
=24	=24	=24	=24	=24	=24	=24	=24	=24	=24	=24	=24	=24	=24	=24	=24
8r	.	.	8r	.	8r	.	2.ryy	2.ryy	2.ryy	16ee-\LL	-men-	2.ryy	2.ryy	2.ryy	2.ryy
.	.	.	.	.	.	.	.	.	.	16dd-\JJ	.	.	.	.	.
8G\	.	6	8B-/	.	8e-/	.	.	.	.	16ee-\LL	-ti-	.	.	.	.
.	.	.	.	.	.	.	.	.	.	16ff\JJ	.	.	.	.	.
*tremolo	*	*	*tremolo	*	*tremolo	*	*	*	*	*	*	*	*	*	*
8G\L	.	.	8B-/L	.	8e-/L	.	.	.	.	4ee-\	-bus	.	.	.	.
8G\	.	.	8B-/	.	8e-/	.	.	.	.	.	.	.	.	.	.
8G\	.	.	8B-/	.	8e-/	.	.	.	.	8r	.	.	.	.	.
8G\J	.	.	8B-/J	.	8e-/J	.	.	.	.	8b-\	ti-	.	.	.	.
*Xtremolo	*	*	*Xtremolo	*	*Xtremolo	*	*	*	*	*	*	*	*	*	*
!LO:LB:g=original	!	!	!	!	!	!	!	!	!	!	!	!	!	!	!
=25	=25	=25	=25	=25	=25	=25	=25	=25	=25	=25	=25	=25	=25	=25	=25
!!mixed beam:problem
!LO:TX:a:t=P:problem=mixed beam	!	!	!	!	!	!	!	!	!	!	!	!	!	!	!
8A-\L	.	6	8c/L	.	8a-/L	.	2.ryy	2.ryy	2.ryy	8cc\	-men-	2.ryy	2.ryy	2.ryy	2.ryy
8A-\	.	.	8c/	.	8a-/	.	.	.	.	16aa-\	-ti-	.	.	.	.
.	.	4	.	.	.	.	.	.	.	16ff\	.	.	.	.	.
8B-\	.	.	8e-/	.	8g/	.	.	.	.	4ee-\	-bus	.	.	.	.
8B-\	.	.	8e-/	.	8g/	.	.	.	.	.	.	.	.	.	.
8BB-/	.	3	8dn/	.	8f/	.	.	.	.	4ddn\	e-	.	.	.	.
8BB-/J	.	.	8d/J	.	8f/J	.	.	.	.	.	.	.	.	.	.
=26	=26	=26	=26	=26	=26	=26	=26	=26	=26	=26	=26	=26	=26	=26	=26
!!mixed beam:problem
!	!	!	!LO:TX:a:t=P:problem=mixed beam	!LO:DY:b:rj	!LO:TX:a:t=P:problem=mixed beam	!	!	!	!	!	!	!	!	!	!
4E-\	.	.	8e-/L	f	8g/L	.	2.ryy	2.ryy	2.ryy	4ee-\	-um	2.ryy	2.ryy	2.ryy	2.ryy
.	.	.	(<16g/L	.	16gg\L	.	.	.	.	.	.	.	.	.	.
.	.	.	16a-/JJ)	.	16aa-\JJ	.	.	.	.	.	.	.	.	.	.
4E-\	.	.	8g/L	.	8gg\L	.	.	.	.	4r	.	.	.	.	.
.	.	.	8f/	.	8ff\	.	.	.	.	.	.	.	.	.	.
8r	.	.	8e-/	.	8ee-\	.	.	.	.	4r	.	.	.	.	.
8G\	.	6	8d-X/J	.	8dd-X\J	.	.	.	.	.	.	.	.	.	.
.	.	-5r	.	.	.	.	.	.	.	.	.	.	.	.	.
!	!	!	!LO:LB:g=original	!	!	!	!	!	!	!LO:LB:g=original	!	!	!	!	!
=27	=27	=27	=27	=27	=27	=27	=27	=27	=27	=27	=27	=27	=27	=27	=27
*tremolo	*	*	*	*	*	*	*	*	*	*	*	*	*	*	*
!	!	!	!	!	!	!	!	!	!	!LO:TX:a:t=3.	!	!	!	!	!
!	!	!	!	!	!	!	!	!	!	!LO:TX:b:t=3.	!	!	!	!	!
8A-\L	.	3	16c/LL	.	16cc\LL	.	2.ryy	2.ryy	2.ryy	2.r	.	2.ryy	2.ryy	2.ryy	2.ryy
.	.	.	(<16Bn/	.	16bn\	.	.	.	.	.	.	.	.	.	.
8A-\	.	.	16c/	.	16cc\	.	.	.	.	.	.	.	.	.	.
.	.	.	16B/JJ)	.	16b\JJ	.	.	.	.	.	.	.	.	.	.
8A-\	.	.	8.c/L	.	8.cc\L	.	.	.	.	.	.	.	.	.	.
8A-\	.	.	.	.	.	.	.	.	.	.	.	.	.	.	.
.	.	.	16e-/Jk	.	16ee-\Jk	.	.	.	.	.	.	.	.	.	.
8A-\	.	.	16e-/LL	.	(>16ee-\LL	.	.	.	.	.	.	.	.	.	.
.	.	.	16d-/	.	16dd-\	.	.	.	.	.	.	.	.	.	.
8A-\J	.	.	16d-/	.	16dd-\	.	.	.	.	.	.	.	.	.	.
.	.	.	16c/JJ	.	16cc\JJ)	.	.	.	.	.	.	.	.	.	.
*Xtremolo	*	*	*	*	*	*	*	*	*	*	*	*	*	*	*
!	!	!	!	!	!LO:LB:g=original	!	!	!	!	!	!	!	!	!	!
=28	=28	=28	=28	=28	=28	=28	=28	=28	=28	=28	=28	=28	=28	=28	=28
*tremolo	*	*	*	*	*	*	*	*	*	*	*	*	*	*	*
8G\L	.	6 5	16B-/LL	.	(>16b-X\LL	.	2.ryy	2.ryy	2.ryy	2.r	.	2.ryy	2.ryy	2.ryy	2.ryy
.	.	.	16An/	.	16an\	.	.	.	.	.	.	.	.	.	.
8G\	.	.	16B-/	.	16b-\	.	.	.	.	.	.	.	.	.	.
.	.	.	16A/JJ	.	16a\JJ)	.	.	.	.	.	.	.	.	.	.
8G\	.	.	16B-/LL	.	(>16b-\LL	.	.	.	.	.	.	.	.	.	.
.	.	.	16dn/	.	16ddn\	.	.	.	.	.	.	.	.	.	.
8G\	.	.	16e-/	.	16ee-\	.	.	.	.	.	.	.	.	.	.
.	.	.	16d/JJ	.	16dd\JJ)	.	.	.	.	.	.	.	.	.	.
8G\	.	.	16e-/LL	.	(>16ee-\LL	.	.	.	.	.	.	.	.	.	.
.	.	.	16d/	.	16dd\	.	.	.	.	.	.	.	.	.	.
8G\J	.	.	16c/	.	16cc\	.	.	.	.	.	.	.	.	.	.
.	.	.	16B-/JJ	.	16b-\JJ)	.	.	.	.	.	.	.	.	.	.
*Xtremolo	*	*	*	*	*	*	*	*	*	*	*	*	*	*	*
=29	=29	=29	=29	=29	=29	=29	=29	=29	=29	=29	=29	=29	=29	=29	=29
!!mixed beam:problem
!LO:TX:a:t=P:problem=mixed beam	!	!	!	!	!	!	!	!	!	!	!	!	!	!	!
8A-\L	.	6	16Bn/LL	.	16bn\LL	.	2.ryy	2.ryy	2.ryy	2.r	.	2.ryy	2.ryy	2.ryy	2.ryy
.	.	.	16c/JJ	.	16cc\	.	.	.	.	.	.	.	.	.	.
8A-\	.	.	16cc\LL	.	16aa-\	.	.	.	.	.	.	.	.	.	.
.	.	.	16a-\JJ	.	16gg\JJ	.	.	.	.	.	.	.	.	.	.
8B-\	.	4	4g/	.	4ee-\	.	.	.	.	.	.	.	.	.	.
8B-\	.	.	.	.	.	.	.	.	.	.	.	.	.	.	.
8BB-/	.	3	4f/	.	4ddn\	.	.	.	.	.	.	.	.	.	.
8BB-/J	.	.	.	.	.	.	.	.	.	.	.	.	.	.	.
=30	=30	=30	=30	=30	=30	=30	=30	=30	=30	=30	=30	=30	=30	=30	=30
*tremolo	*	*	*	*	*	*	*	*	*	*	*	*	*	*	*
!!mixed beam:problem
!	!LO:DY:b:rj:t=p.	!	!	!LO:DY:b:rj:t=p.	!LO:TX:a:t=P:problem=mixed beam	!	!	!	!	!	!	!	!	!	!
8E-\L	p	.	8g/L	p	8ee-\L	.	2.ryy	2.ryy	2.ryy	8.b-\L	fe-	2.ryy	2.ryy	2.ryy	2.ryy
!	!	!	!	!	!	!LO:DY:b	!	!	!	!	!	!	!	!	!
8E-\	.	.	8B-/	.	8g/J	p	.	.	.	.	.	.	.	.	.
.	.	.	.	.	.	.	.	.	.	16g\Jk	.	.	.	.	.
*	*	*	*tremolo	*	*tremolo	*	*	*	*	*	*	*	*	*	*
8E-\	.	.	8B-/	.	8g/L	.	.	.	.	4e-/	-cit	.	.	.	.
8E-\	.	.	8B-/	.	8g/	.	.	.	.	.	.	.	.	.	.
8E-\	.	.	8B-/	.	8g/	.	.	.	.	8r	.	.	.	.	.
8E-\J	.	.	8B-/J	.	8g/J	.	.	.	.	8ee-\	po-	.	.	.	.
*Xtremolo	*	*	*Xtremolo	*	*Xtremolo	*	*	*	*	*	*	*	*	*	*
=31	=31	=31	=31	=31	=31	=31	=31	=31	=31	=31	=31	=31	=31	=31	=31
.	.	.	.	.	.	.	.	.	.	8qee-/	.	.	.	.	.
*	*	*	*	*	*	*	*	*	*	*^	*	*	*	*	*
8r	.	.	8r	.	8r	.	2.ryy	2.ryy	2.ryy	8dd-/	8dd-\	-ten-	2.ryy	2.ryy	2.ryy	2.ryy
8Dn\	.	6	8B-/	.	8f/	.	.	.	.	16cc\LL	8ryy	-ti-	.	.	.	.
.	.	.	.	.	.	.	.	.	.	16b-\JJ	.	.	.	.	.	.
*tremolo	*	*	*tremolo	*	*tremolo	*	*	*	*	*	*	*	*	*	*	*
8D\L	.	.	8B-/L	.	8f/L	.	.	.	.	8b-\	2ryy	-am	.	.	.	.
!	!	!	!	!	!	!	!	!	!	!LO:N:vis=8	!	!	!	!	!	!
8D\	.	.	8B-/	.	8f/	.	.	.	.	4rc	.	.	.	.	.	.
8D\	.	.	8B-/	.	8f/	.	.	.	.	.	.	.	.	.	.	.
8D\J	.	.	8B-/J	.	8f/J	.	.	.	.	8ff\	.	in	.	.	.	.
*Xtremolo	*	*	*Xtremolo	*	*Xtremolo	*	*	*	*	*	*	*	*	*	*	*
*	*	*	*	*	*	*	*	*	*	*v	*v	*	*	*	*	*
=32	=32	=32	=32	=32	=32	=32	=32	=32	=32	=32	=32	=32	=32	=32	=32
8r	.	.	8r	.	8r	.	2.ryy	2.ryy	2.ryy	4.gg\	bra-	2.ryy	2.ryy	2.ryy	2.ryy
8E-\	.	.	8B-/	.	8g/	.	.	.	.	.	.	.	.	.	.
*tremolo	*	*	*tremolo	*	*tremolo	*	*	*	*	*	*	*	*	*	*
8E-\L	.	.	8B-/L	.	8g/L	.	.	.	.	.	.	.	.	.	.
8E-\	.	.	8B-/	.	8g/	.	.	.	.	16ff\LL	.	.	.	.	.
.	.	.	.	.	.	.	.	.	.	16ee-\JJ	.	.	.	.	.
8E-\	.	.	8B-/	.	8g/	.	.	.	.	16ddn\LL	-hi-	.	.	.	.
.	.	.	.	.	.	.	.	.	.	16ee-\JJ	.	.	.	.	.
8E-\J	.	.	8B-/J	.	8g/J	.	.	.	.	16gg\LL	-o	.	.	.	.
.	.	.	.	.	.	.	.	.	.	16ee-\JJ	.	.	.	.	.
*Xtremolo	*	*	*Xtremolo	*	*Xtremolo	*	*	*	*	*	*	*	*	*	*
!	!	!	!	!	!LO:LB:g=original	!	!	!	!	!	!	!	!	!	!
=33	=33	=33	=33	=33	=33	=33	=33	=33	=33	=33	=33	=33	=33	=33	=33
!	!	!	!LO:TX:a:t=P:problem=t.33-34 zapisane jako repetycja	!	!	!	!	!	!	!	!	!	!	!	!
8r	.	.	8ryy	.	8r	.	2.ryy	2.ryy	2.ryy	4ddn\	su-	2.ryy	2.ryy	2.ryy	2.ryy
8B-\	.	.	8B-/yy	.	8f/	.	.	.	.	.	.	.	.	.	.
*tremolo	*	*	*tremolo	*	*tremolo	*	*	*	*	*	*	*	*	*	*
8E-\L	.	.	8B-/Lyy	.	8g/L	.	.	.	.	4ee-\	-o	.	.	.	.
8E-\	.	.	8B-/yy	.	8g/	.	.	.	.	.	.	.	.	.	.
8E-\	.	.	8B-/yy	.	8g/	.	.	.	.	4r	.	.	.	.	.
8E-\J	.	.	8B-/Jyy	.	8g/J	.	.	.	.	.	.	.	.	.	.
*Xtremolo	*	*	*Xtremolo	*	*Xtremolo	*	*	*	*	*	*	*	*	*	*
!LO:LB:g=original	!	!	!	!	!	!	!	!	!	!	!	!	!	!	!
=34	=34	=34	=34	=34	=34	=34	=34	=34	=34	=34	=34	=34	=34	=34	=34
8r	.	.	8ryy	.	8r	.	2.ryy	2.ryy	2.ryy	16b-\LL	fe-	2.ryy	2.ryy	2.ryy	2.ryy
.	.	.	.	.	.	.	.	.	.	16ee-\	.	.	.	.	.
8E-\	.	.	8B-/yy	.	8g/	.	.	.	.	16gg\	.	.	.	.	.
.	.	.	.	.	.	.	.	.	.	16ee-\JJ	.	.	.	.	.
*tremolo	*	*	*tremolo	*	*tremolo	*	*	*	*	*	*	*	*	*	*
8E-\L	.	.	8B-/Lyy	.	8g/L	.	.	.	.	4b-\	-cit	.	.	.	.
8E-\	.	.	8B-/yy	.	8g/	.	.	.	.	.	.	.	.	.	.
8E-\	.	.	8B-/yy	.	8g/	.	.	.	.	8r	.	.	.	.	.
8E-\J	.	.	8B-/Jyy	.	8g/J	.	.	.	.	8gg\	po-	.	.	.	.
*Xtremolo	*	*	*Xtremolo	*	*Xtremolo	*	*	*	*	*	*	*	*	*	*
!	!	!	!LO:LB:g=original	!	!	!	!	!	!	!LO:LB:g=original	!	!	!	!	!
=35	=35	=35	=35	=35	=35	=35	=35	=35	=35	=35	=35	=35	=35	=35	=35
8r	.	.	8r	.	8r	.	2.ryy	2.ryy	2.ryy	16gg\LL	-ten-	2.ryy	2.ryy	2.ryy	2.ryy
.	.	.	.	.	.	.	.	.	.	16ff\JJ	.	.	.	.	.
8Dn\	.	6	8B-/	.	8f/	.	.	.	.	16een\LL	-ti-	.	.	.	.
.	.	.	.	.	.	.	.	.	.	16ff\JJ	.	.	.	.	.
*tremolo	*	*	*tremolo	*	*tremolo	*	*	*	*	*	*	*	*	*	*
8D\L	.	.	8B-/L	.	8f/L	.	.	.	.	4ff\	-am	.	.	.	.
8D\	.	.	8B-/	.	8f/	.	.	.	.	.	.	.	.	.	.
8D\	.	.	8B-/	.	8f/	.	.	.	.	8r	.	.	.	.	.
8D\J	.	.	8B-/J	.	8f/J	.	.	.	.	8ff\	in	.	.	.	.
*Xtremolo	*	*	*Xtremolo	*	*Xtremolo	*	*	*	*	*	*	*	*	*	*
=36	=36	=36	=36	=36	=36	=36	=36	=36	=36	=36	=36	=36	=36	=36	=36
8r	.	.	8r	.	8r	.	2.ryy	2.ryy	2.ryy	8gg\L	bra-	2.ryy	2.ryy	2.ryy	2.ryy
!!mixed beam:problem
!	!	!	!	!	!LO:TX:t=P:problem=mixed beam	!	!	!	!	!	!	!	!	!	!
8E-\L	.	.	8c/	.	8g/L	.	.	.	.	16ff\L	.	.	.	.	.
.	.	.	.	.	.	.	.	.	.	16gg\JJ	.	.	.	.	.
*tremolo	*	*	*tremolo	*	*	*	*	*	*	*	*	*	*	*	*
8A-\	.	6	8c/L	.	8cc\	.	.	.	.	8aa-\L	.	.	.	.	.
8A-\	.	.	8c/	.	8b-\	.	.	.	.	8gg\J	.	.	.	.	.
8A-\	.	.	8c/	.	8a-\	.	.	.	.	8ff\L	-hi-	.	.	.	.
8An\J	.	5	8c/J	.	8g\J	.	.	.	.	8ee-\J	-o	.	.	.	.
*Xtremolo	*	*	*Xtremolo	*	*	*	*	*	*	*	*	*	*	*	*
=37	=37	=37	=37	=37	=37	=37	=37	=37	=37	=37	=37	=37	=37	=37	=37
8r	.	.	8r	.	8r	.	2.ryy	2.ryy	2.ryy	4ee-\	su-	2.ryy	2.ryy	2.ryy	2.ryy
8B-\	.	4	8e-/	.	8g/	.	.	.	.	.	.	.	.	.	.
*tremolo	*	*	*tremolo	*	*tremolo	*	*	*	*	*	*	*	*	*	*
!	!	!	!	!	!	!	!	!	!	!LO:SIC:v:s:t=ddn	!	!	!	!	!
8B-\L	.	5	8dn/L	.	8f/L	.	.	.	.	4dd-\	-o	.	.	.	.
8B-\	.	.	8dn/	.	8f/	.	.	.	.	.	.	.	.	.	.
8B-\	.	.	8dn/	.	8f/	.	.	.	.	8r	.	.	.	.	.
8B-\J	.	.	8dn/J	.	8f/J	.	.	.	.	8b-\	di-	.	.	.	.
*Xtremolo	*	*	*Xtremolo	*	*Xtremolo	*	*	*	*	*	*	*	*	*	*
=38	=38	=38	=38	=38	=38	=38	=38	=38	=38	=38	=38	=38	=38	=38	=38
8r	.	.	8r	.	8r	.	2.ryy	2.ryy	2.ryy	16cc\LL	-sper-	2.ryy	2.ryy	2.ryy	2.ryy
.	.	.	.	.	.	.	.	.	.	16dd-\	.	.	.	.	.
8F\	.	6	8c/	.	8a-/	.	.	.	.	16ee-\	.	.	.	.	.
.	.	.	.	.	.	.	.	.	.	16dd-\JJ	.	.	.	.	.
*tremolo	*	*	*tremolo	*	*tremolo	*	*	*	*	*	*	*	*	*	*
8F\L	.	.	8c/L	.	8a-/L	.	.	.	.	4cc\	-sit	.	.	.	.
8F\	.	.	8c/	.	8a-/	.	.	.	.	.	.	.	.	.	.
8F\	.	.	8c/	.	8a-/	.	.	.	.	8r	.	.	.	.	.
*	*	*	*	*	*	*	*	*	*	*	*ij	*	*	*	*
8F\J	.	.	8c/J	.	8a-/J	.	.	.	.	8ee-\	di-	.	.	.	.
*Xtremolo	*	*	*Xtremolo	*	*Xtremolo	*	*	*	*	*	*	*	*	*	*
=39	=39	=39	=39	=39	=39	=39	=39	=39	=39	=39	=39	=39	=39	=39	=39
!	!	!	!	!	!	!	!	!	!	!LO:N:vis=8	!	!	!	!	!
8r	.	.	8r	.	8r	.	2.ryy	2.ryy	2.ryy	8.dd-\L	-sper-	2.ryy	2.ryy	2.ryy	2.ryy
8B-\	.	6	8d-X/	.	8f/	.	.	.	.	.	.	.	.	.	.
.	.	.	.	.	.	.	.	.	.	16ff\Jk	.	.	.	.	.
*tremolo	*	*	*tremolo	*	*tremolo	*	*	*	*	*	*	*	*	*	*
8B-\L	.	.	8d-/L	.	8f/L	.	.	.	.	4dd-\	-sit	.	.	.	.
*	*	*	*	*	*	*	*	*	*	*	*Xij	*	*	*	*
8B-\	.	.	8d-/	.	8f/	.	.	.	.	.	.	.	.	.	.
8B-\	.	.	8d-/	.	8f/	.	.	.	.	8r	.	.	.	.	.
8B-\J	.	.	8d-/J	.	8f/J	.	.	.	.	8dd-\	di-	.	.	.	.
*Xtremolo	*	*	*Xtremolo	*	*Xtremolo	*	*	*	*	*	*	*	*	*	*
!	!	!	!	!	!LO:LB:g=original	!	!	!	!	!LO:LB:g=original	!	!	!	!	!
=40	=40	=40	=40	=40	=40	=40	=40	=40	=40	=40	=40	=40	=40	=40	=40
8r	.	.	8r	.	8r	.	2.ryy	2.ryy	2.ryy	16b-\LL	-sper-	2.ryy	2.ryy	2.ryy	2.ryy
.	.	.	.	.	.	.	.	.	.	16cc\	.	.	.	.	.
8E-\	.	.	8B-/	.	8g/	.	.	.	.	16dd-\	.	.	.	.	.
.	.	.	.	.	.	.	.	.	.	16cc\JJ	.	.	.	.	.
*tremolo	*	*	*tremolo	*	*tremolo	*	*	*	*	*	*	*	*	*	*
8E-\L	.	.	8B-/L	.	8g/L	.	.	.	.	4b-\	-sit	.	.	.	.
8E-\	.	.	8B-/	.	8g/	.	.	.	.	.	.	.	.	.	.
8E-\	.	.	8B-/	.	8g/	.	.	.	.	8r	.	.	.	.	.
8E-\J	.	.	8B-/J	.	8g/J	.	.	.	.	8dd-\	su-	.	.	.	.
*Xtremolo	*	*	*Xtremolo	*	*Xtremolo	*	*	*	*	*	*	*	*	*	*
=41	=41	=41	=41	=41	=41	=41	=41	=41	=41	=41	=41	=41	=41	=41	=41
8r	.	.	8r	.	8r	.	2.ryy	2.ryy	2.ryy	8.cc\L	-per-	2.ryy	2.ryy	2.ryy	2.ryy
8A-\	.	.	8c/	.	8e-/	.	.	.	.	.	.	.	.	.	.
.	.	.	.	.	.	.	.	.	.	16ee-\Jk	.	.	.	.	.
*tremolo	*	*	*tremolo	*	*tremolo	*	*	*	*	*	*	*	*	*	*
8A-\L	.	.	8c/L	.	8e-/L	.	.	.	.	4cc\	-bos	.	.	.	.
8A-\	.	.	8c/	.	8e-/	.	.	.	.	.	.	.	.	.	.
8A-\	.	.	8c/	.	8e-/	.	.	.	.	8r	.	.	.	.	.
8A-\J	.	.	8c/J	.	8e-/J	.	.	.	.	8cc\	men-	.	.	.	.
*Xtremolo	*	*	*Xtremolo	*	*Xtremolo	*	*	*	*	*	*	*	*	*	*
!LO:PB:g=original	!	!	!	!	!	!	!	!	!	!	!	!	!	!	!
=42	=42	=42	=42	=42	=42	=42	=42	=42	=42	=42	=42	=42	=42	=42	=42
8r	.	.	8r	.	8r	.	2.ryy	2.ryy	2.ryy	8cc\	-te	2.ryy	2.ryy	2.ryy	2.ryy
8A-\L	.	.	8c/	.	8cc\L	.	.	.	.	8ee-\	cor-	.	.	.	.
*	*	*	*tremolo	*	*	*	*	*	*	*	*	*	*	*	*
8D-\	.	6	8f/L	.	8cc\	.	.	.	.	8ee-\L	.	.	.	.	.
8D-\	.	.	8f/	.	8b-\	.	.	.	.	8dd-\J	.	.	.	.	.
8D-\	.	.	8f/	.	8b-\	.	.	.	.	8dd-\L	.	.	.	.	.
8Dn\J	.	5	8f/J	.	8a-\J	.	.	.	.	8cc\J	-dis	.	.	.	.
*	*	*	*Xtremolo	*	*	*	*	*	*	*	*	*	*	*	*
=43	=43	=43	=43	=43	=43	=43	=43	=43	=43	=43	=43	=43	=43	=43	=43
8r	.	.	8r	.	8r	.	2.ryy	2.ryy	2.ryy	4cc\	su-	2.ryy	2.ryy	2.ryy	2.ryy
8E-\	.	4	8c/	.	8a-/	.	.	.	.	.	.	.	.	.	.
*tremolo	*	*	*tremolo	*	*tremolo	*	*	*	*	*	*	*	*	*	*
8E-\L	.	3	8B-/L	.	8a-/L	.	.	.	.	4b-\	-is	.	.	.	.
8E-\	.	.	8B-/	.	8a-/	.	.	.	.	.	.	.	.	.	.
8E-\	.	.	8B-/	.	8a-/	.	.	.	.	4r	.	.	.	.	.
8E-\J	.	.	8B-/J	.	8a-/J	.	.	.	.	.	.	.	.	.	.
*Xtremolo	*	*	*Xtremolo	*	*Xtremolo	*	*	*	*	*	*	*	*	*	*
!	!	!	!LO:LB:g=original	!	!	!	!	!	!	!	!	!	!	!	!
=44	=44	=44	=44	=44	=44	=44	=44	=44	=44	=44	=44	=44	=44	=44	=44
8r	.	.	8r	.	8r	.	2.ryy	2.ryy	2.ryy	4.ee-\	d[i]-	2.ryy	2.ryy	2.ryy	2.ryy
8A-\	.	3	8c/L	.	8e-/L	.	.	.	.	.	.	.	.	.	.
*tremolo	*	*	*	*	*	*	*	*	*	*	*	*	*	*	*
8A-\L	.	4	8c/	.	8e-/	.	.	.	.	.	.	.	.	.	.
8A-\	.	.	8c/	.	8e-/	.	.	.	.	16ff\LL	.	.	.	.	.
.	.	.	.	.	.	.	.	.	.	16gg\JJ	.	.	.	.	.
.	.	.	.	.	.	.	.	.	.	8qbb-/	.	.	.	.	.
8A-\	.	.	8d-/	.	8f/	.	.	.	.	8aa-\L	.	.	.	.	.
8A-\J	.	.	8d-/J	.	8f/J	.	.	.	.	16gg\L	.	.	.	.	.
.	.	.	.	.	.	.	.	.	.	16ff\JJ	.	.	.	.	.
*Xtremolo	*	*	*	*	*	*	*	*	*	*	*	*	*	*	*
!	!	!	!	!	!	!	!	!	!	!LO:LB:g=original	!	!	!	!	!
=45	=45	=45	=45	=45	=45	=45	=45	=45	=45	=45	=45	=45	=45	=45	=45
8r	.	.	8r	.	8r	.	2.ryy	2.ryy	2.ryy	16ee-\LL	-[s]per-	2.ryy	2.ryy	2.ryy	2.ryy
.	.	.	.	.	.	.	.	.	.	16dd-\	.	.	.	.	.
8A-\	.	3	8c/	.	8e-/	.	.	.	.	16cc\	.	.	.	.	.
.	.	.	.	.	.	.	.	.	.	16dd-\JJ	.	.	.	.	.
*tremolo	*	*	*tremolo	*	*tremolo	*	*	*	*	*	*	*	*	*	*
8A-\L~>	.	.	8c/L	.	8e-/L	.	.	.	.	4ee-\	-sit	.	.	.	.
8A-\	.	.	8c/	.	8e-/	.	.	.	.	.	.	.	.	.	.
8A-\	.	.	8c/	.	8e-/	.	.	.	.	4r	.	.	.	.	.
8A-\J	.	.	8c/J	.	8e-/J	.	.	.	.	.	.	.	.	.	.
*Xtremolo	*	*	*Xtremolo	*	*Xtremolo	*	*	*	*	*	*	*	*	*	*
=46	=46	=46	=46	=46	=46	=46	=46	=46	=46	=46	=46	=46	=46	=46	=46
!	!	!	!LO:TX:a:t=P:problem=t. 46-47 zapisane jako repetycja	!	!	!	!	!	!	!	!	!	!	!	!
8r	.	.	8ryy	.	8r	.	2.ryy	2.ryy	2.ryy	4.ee-\	di-	2.ryy	2.ryy	2.ryy	2.ryy
8A-\	.	3	8c/Lyy	.	8e-/L	.	.	.	.	.	.	.	.	.	.
*tremolo	*	*	*	*	*	*	*	*	*	*	*	*	*	*	*
8A-\L	.	4	8c/yy	.	8e-/	.	.	.	.	.	.	.	.	.	.
8A-\	.	.	8c/yy	.	8e-/	.	.	.	.	16ff\LL	.	.	.	.	.
.	.	.	.	.	.	.	.	.	.	16gg\JJ	.	.	.	.	.
.	.	.	.	.	.	.	.	.	.	8qbb-/	.	.	.	.	.
8A-\	.	.	8d-/yy	.	8f/	.	.	.	.	8aa-\L	.	.	.	.	.
8A-\J	.	.	8d-/Jyy	.	8f/J	.	.	.	.	16gg\L	.	.	.	.	.
.	.	.	.	.	.	.	.	.	.	16ff\JJ	.	.	.	.	.
*Xtremolo	*	*	*	*	*	*	*	*	*	*	*	*	*	*	*
=47	=47	=47	=47	=47	=47	=47	=47	=47	=47	=47	=47	=47	=47	=47	=47
8r	.	.	8ryy	.	8r	.	2.ryy	2.ryy	2.ryy	16ee-\LL	-sper-	2.ryy	2.ryy	2.ryy	2.ryy
.	.	.	.	.	.	.	.	.	.	16dd-\	.	.	.	.	.
8A-\	.	3	8c/yy	.	8e-/	.	.	.	.	16cc\	.	.	.	.	.
.	.	.	.	.	.	.	.	.	.	16dd-\JJ	.	.	.	.	.
*tremolo	*	*	*tremolo	*	*tremolo	*	*	*	*	*	*	*	*	*	*
8A-\L	.	.	8c/Lyy	.	8e-/L	.	.	.	.	4ee-\	-sit	.	.	.	.
8A-\	.	.	8c/yy	.	8e-/	.	.	.	.	.	.	.	.	.	.
8A-\	.	.	8c/yy	.	8e-/	.	.	.	.	8r	.	.	.	.	.
8A-\J	.	.	8c/Jyy	.	8e-/J	.	.	.	.	8cc\	Su-	.	.	.	.
*Xtremolo	*	*	*Xtremolo	*	*Xtremolo	*	*	*	*	*	*	*	*	*	*
!LO:LB:g=original	!	!	!	!	!	!	!	!	!	!	!	!	!	!	!
=48	=48	=48	=48	=48	=48	=48	=48	=48	=48	=48	=48	=48	=48	=48	=48
8r	.	.	8r	.	8r	.	2.ryy	2.ryy	2.ryy	4.b-\	-per-	2.ryy	2.ryy	2.ryy	2.ryy
8G\	.	6	8B-/	.	8e-/	.	.	.	.	.	.	.	.	.	.
*tremolo	*	*	*tremolo	*	*tremolo	*	*	*	*	*	*	*	*	*	*
8G\L	.	.	8B-/L	.	8e-/L	.	.	.	.	.	.	.	.	.	.
8G\	.	.	8B-/	.	8e-/	.	.	.	.	8ee-\	.	.	.	.	.
8G\	.	.	8B-/	.	8e-/	.	.	.	.	8gg\L	-bos	.	.	.	.
8G\J	.	.	8B-/J	.	8e-/J	.	.	.	.	8bb-\J	.	.	.	.	.
*Xtremolo	*	*	*Xtremolo	*	*Xtremolo	*	*	*	*	*	*	*	*	*	*
=49	=49	=49	=49	=49	=49	=49	=49	=49	=49	=49	=49	=49	=49	=49	=49
8r	.	.	8r	.	8r	.	2.ryy	2.ryy	2.ryy	8bb-\L	men-	2.ryy	2.ryy	2.ryy	2.ryy
8A-\	.	3	8c/	.	8e-/	.	.	.	.	8ee-\J	.	.	.	.	.
*tremolo	*	*	*tremolo	*	*tremolo	*	*	*	*	*	*	*	*	*	*
8A-\L	.	.	8c/L	.	8e-/L	.	.	.	.	4ee-\	-te	.	.	.	.
8A-\	.	.	8c/	.	8e-/	.	.	.	.	.	.	.	.	.	.
8A-\	.	.	8c/	.	8e-/	.	.	.	.	8r	.	.	.	.	.
8A-\J	.	.	8c/J	.	8e-/J	.	.	.	.	8ee-\	cor-	.	.	.	.
*Xtremolo	*	*	*Xtremolo	*	*Xtremolo	*	*	*	*	*	*	*	*	*	*
!	!	!	!	!	!	!	!	!	!	!LO:LB:g=original	!	!	!	!	!
=50	=50	=50	=50	=50	=50	=50	=50	=50	=50	=50	=50	=50	=50	=50	=50
!	!	!	!	!	!LO:TX:a:t=P:problem=zbędny t. 50	!	!	!	!	!	!	!	!	!	!
2.ryy	.	.	2.ryy	.	8r	.	2.ryy	2.ryy	2.ryy	2.ryy	.	2.ryy	2.ryy	2.ryy	2.ryy
.	.	.	.	.	8e-/	.	.	.	.	.	.	.	.	.	.
*	*	*	*tremolo	*	*tremolo	*	*	*	*	*	*	*	*	*	*
.	.	.	.	.	8e-/L	.	.	.	.	.	.	.	.	.	.
.	.	.	.	.	8e-/	.	.	.	.	.	.	.	.	.	.
.	.	.	.	.	8e-/	.	.	.	.	.	.	.	.	.	.
.	.	.	.	.	8e-/J	.	.	.	.	.	.	.	.	.	.
*	*	*	*Xtremolo	*	*Xtremolo	*	*	*	*	*	*	*	*	*	*
=51	=51	=51	=51	=51	=51	=51	=51	=51	=51	=51	=51	=51	=51	=51	=51
8r	.	.	8r	.	8r	.	2.ryy	2.ryy	2.ryy	16ff\LL	.	2.ryy	2.ryy	2.ryy	2.ryy
.	.	.	.	.	.	.	.	.	.	16ee-\	.	.	.	.	.
8D-\	.	3	8A-/	.	8f/	.	.	.	.	16ff\	.	.	.	.	.
.	.	.	.	.	.	.	.	.	.	16gg-X\JJ	.	.	.	.	.
*tremolo	*	*	*tremolo	*	*tremolo	*	*	*	*	*	*	*	*	*	*
8D-\L	.	n4	8A-/L	.	8f/L	.	.	.	.	4ff\	-dis	.	.	.	.
8D-\	.	.	8A-/	.	8f/	.	.	.	.	.	.	.	.	.	.
8D-\	.	.	8A-/	.	8f/	.	.	.	.	8r	.	.	.	.	.
8D-\J	.	.	8A-/J	.	8f/J	.	.	.	.	8ggn\	cor	.	.	.	.
*Xtremolo	*	*	*Xtremolo	*	*Xtremolo	*	*	*	*	*	*	*	*	*	*
=52	=52	=52	=52	=52	=52	=52	=52	=52	=52	=52	=52	=52	=52	=52	=52
8r	.	.	8r	.	8r	.	2.ryy	2.ryy	2.ryy	16aa-\LL	.	2.ryy	2.ryy	2.ryy	2.ryy
.	.	.	.	.	.	.	.	.	.	16gg\	.	.	.	.	.
8C/	.	6	8A-/	.	8e-/	.	.	.	.	16aa-\	.	.	.	.	.
.	.	.	.	.	.	.	.	.	.	16bb-\JJ	.	.	.	.	.
*tremolo	*	*	*tremolo	*	*tremolo	*	*	*	*	*	*	*	*	*	*
8C/L	.	.	8A-/L	.	8e-/L	.	.	.	.	4aa-\	.	.	.	.	.
8C/	.	.	8A-/	.	8e-/	.	.	.	.	.	.	.	.	.	.
8C/	.	.	8A-/	.	8e-/	.	.	.	.	8r	.	.	.	.	.
8C/J	.	.	8A-/J	.	8e-/J	.	.	.	.	8ee-\	cor-	.	.	.	.
*	*	*	*Xtremolo	*	*Xtremolo	*	*	*	*	*	*	*	*	*	*
*Xtremolo	*	*	*	*	*	*	*	*	*	*	*	*	*	*	*
=53	=53	=53	=53	=53	=53	=53	=53	=53	=53	=53	=53	=53	=53	=53	=53
*	*	*	*	*	*tremolo	*	*	*	*	*	*	*	*	*	*
!!mixed beam:problem
!LO:TX:a:t=P:problem=mixed beam	!	!	!	!	!	!	!	!	!	!LO:N:vis=4	!	!	!	!	!
8D-\L	.	.	8f/L	.	8a-/L	.	2.ryy	2.ryy	2.ryy	8ff\	.	2.ryy	2.ryy	2.ryy	2.ryy
8D-\	.	.	8f/	.	8a-/	.	.	.	.	16ee-\LL	.	.	.	.	.
.	.	.	.	.	.	.	.	.	.	16dd-\JJ	.	.	.	.	.
8E-\	.	.	8c/	.	8a-/	.	.	.	.	4cc\	-dis	.	.	.	.
8E-\	.	.	8c/	.	8a-/J	.	.	.	.	.	.	.	.	.	.
*	*	*	*	*	*Xtremolo	*	*	*	*	*	*	*	*	*	*
8EE-/	.	.	8B-/	.	8g/L	.	.	.	.	4b-\	su-	.	.	.	.
8EE-/J	.	.	8B-/J	.	8g/J	.	.	.	.	.	.	.	.	.	.
!	!	!	!	!	!LO:LB:g=original	!	!	!	!	!	!	!	!	!	!
=54	=54	=54	=54	=54	=54	=54	=54	=54	=54	=54	=54	=54	=54	=54	=54
4AA-/	.	.	2c/	.	4a-/	.	2.ryy	2.ryy	2.ryy	4a-\	-is	2.ryy	2.ryy	2.ryy	2.ryy
4F\	.	.	.	.	8r	.	.	.	.	4r	.	.	.	.	.
!	!	!	!	!	!	!LO:DY:b	!	!	!	!	!	!	!	!	!
.	.	.	.	.	16a-/LL	f	.	.	.	.	.	.	.	.	.
.	.	.	.	.	16g/JJ	.	.	.	.	.	.	.	.	.	.
4C/	.	6	4A-/	.	8a-/L	.	.	.	.	4r	.	.	.	.	.
.	.	.	.	.	8e-/J	.	.	.	.	.	.	.	.	.	.
=55	=55	=55	=55	=55	=55	=55	=55	=55	=55	=55	=55	=55	=55	=55	=55
2D-X\	.	3	4A-/	.	(<8g/L	.	2.ryy	2.ryy	2.ryy	0.r	.	2.ryy	2.ryy	2.ryy	2.ryy
.	.	6	.	.	8f/J)	.	.	.	.	.	.	.	.	.	.
!	!	!	!	!	!LO:TX:a:t=|:problem	!	!	!	!	!	!	!	!	!	!
.	.	.	4f/	.	8dd-\L	.	.	.	.	.	.	.	.	.	.
!	!	!	!	!	!LO:TX:a:t=|:problem	!	!	!	!	!	!	!	!	!	!
.	.	.	.	.	8b-\J	.	.	.	.	.	.	.	.	.	.
4E-\	.	4	8c/L	.	(>8a-\L	.	.	.	.	.	.	.	.	.	.
.	.	3	8B-/J	.	8g\J)	.	.	.	.	.	.	.	.	.	.
!	!	!	!LO:LB:g=original	!	!	!	!	!	!	!	!	!	!	!	!
=56	=56	=56	=56	=56	=56	=56	=56	=56	=56	=56-	=56	=56	=56	=56	=56
2F\	.	3	2c/	.	4a-/	.	2.ryy	2.ryy	2.ryy	.	.	2.ryy	2.ryy	2.ryy	2.ryy
.	.	.	.	.	8r	.	.	.	.	.	.	.	.	.	.
.	.	.	.	.	(<16a-/LL	.	.	.	.	.	.	.	.	.	.
.	.	.	.	.	16g/JJ)	.	.	.	.	.	.	.	.	.	.
4C/	.	6	4A-/	.	(<8a-/L	.	.	.	.	.	.	.	.	.	.
.	.	.	.	.	8e-/J)	.	.	.	.	.	.	.	.	.	.
!LO:LB:g=original	!	!	!	!	!	!	!	!	!	!	!	!	!	!	!
=57	=57	=57	=57	=57	=57	=57	=57	=57	=57	=57-	=57	=57	=57	=57	=57
2D-\	.	3	4A-/	.	8g/L	.	2.ryy	2.ryy	2.ryy	.	.	2.ryy	2.ryy	2.ryy	2.ryy
.	.	6	.	.	8f/J	.	.	.	.	.	.	.	.	.	.
.	.	.	4f/	.	8dd-\L	.	.	.	.	.	.	.	.	.	.
.	.	.	.	.	8b-\	.	.	.	.	.	.	.	.	.	.
4E-\	.	4	8c/L	.	8a-\	.	.	.	.	.	.	.	.	.	.
.	.	3	8B-/J	.	8f\J	.	.	.	.	.	.	.	.	.	.
=58	=58	=58	=58	=58	=58	=58	=58	=58	=58	=58-	=58	=58	=58	=58	=58
4A-\	.	.	4c/	.	8a-/L	.	2.ryy	2.ryy	2.ryy	.	.	2.ryy	2.ryy	2.ryy	2.ryy
.	.	.	.	.	8e-/J	.	.	.	.	.	.	.	.	.	.
4AA-/	.	.	4c/	.	4e-/	.	.	.	.	.	.	.	.	.	.
!	!	!	!	!	!LO:TX:b:t=Volti Subito	!	!	!	!	!	!	!	!	!	!
4r	.	.	4r	.	4r	.	.	.	.	.	.	.	.	.	.
=59	=59	=59	=59	=59	=59	=59	=59	=59	=59	=59-	=59	=59	=59	=59	=59
!	!	!	!	!	!	!	!	!	!	!LO:TX:t=P:problem=zbędna pauza	!	!	!	!	!
2.ryy	.	.	2.ryy	.	2.ryy	.	2.ryy	2.ryy	2.ryy	0.r	.	2.ryy	2.ryy	2.ryy	2.ryy
=60	=60	=60	=60	=60	=60	=60	=60	=60	=60	=60-	=60	=60	=60	=60	=60
2.ryy	.	.	2.ryy	.	2.ryy	.	2.ryy	2.ryy	2.ryy	.	.	2.ryy	2.ryy	2.ryy	2.ryy
=61	=61	=61	=61	=61	=61	=61	=61	=61	=61	=61-	=61	=61	=61	=61	=61
2.ryy	.	.	2.ryy	.	2.ryy	.	2.ryy	2.ryy	2.ryy	.	.	2.ryy	2.ryy	2.ryy	2.ryy
=62	=62	=62	=62	=62	=62	=62	=62	=62	=62	=62-	=62	=62	=62	=62	=62
2.ryy	.	.	2.ryy	.	2.ryy	.	2.ryy	2.ryy	2.ryy	.	.	2.ryy	2.ryy	2.ryy	2.ryy
==	==	==	==	==	==	==	==	==	==	==	==	==	==	==	==
*-	*-	*-	*-	*-	*-	*-	*-	*-	*-	*-	*-	*-	*-	*-	*-
!!!system-decoration: [(g1)][(g2)][(g3)][(g4)][(g5)]
!!!RDF**kern: > = above
!!!RDF**kern: < = below
!!!ENC: Marcin Jachim
!!!END: 2020-07-08
!!!EED: Jędrzej Mróz
!!!ESR: 2021-11-23
